img/logos/html5-boilerplate.svg

<?xml version="1.0" encoding="UTF-8" standalone="no"?>
<svg width="256px" height="256px" viewBox="0 0 256 256" version="1.1" xmlns="http://www.w3.org/2000/svg" xmlns:xlink="http://www.w3.org/1999/xlink" preserveAspectRatio="xMinYMin meet">
	<g>
		<rect fill="#222222" x="0" y="0" width="256" height="256"></rect>
		<path d="M114.4064,35.2768 L91.8272,99.81952 L23.332864,100.00896 L78.84288,141.0304 L58.89536,207.26272 L114.9696,167.56224 L172.55424,209.71008 L151.4752,140.84096 L206.42304,99.81952 L138.11712,100.00896 L114.4064,35.2768" fill="#E08524"></path>
		<path d="M117.22752,34.335744 L139.99616,45.061632 L159.001088,96.998912 L140.184064,96.998912 L117.22752,34.340352" fill="#466770"></path>
		<path d="M156.3392,142.23872 L178.825728,153.28256 L233.246208,113.764864 L210.75968,101.789696 L156.3392,142.23872" fill="#304A51"></path>
		<path d="M156.30848,142.19776 L178.825728,153.233408 L200.114688,222.071808 L176.829952,210.22976 L156.30848,142.20032" fill="#466770"></path>
		<path d="M62.09536,209.61792 L114.9696,171.795968 L133.504512,185.532416 L83.5456,220.532224 L62.094336,209.618432" fill="#304A51"></path>
	</g>
</svg>

<svg width="256" height="256" viewBox="0 0 256 256" xmlns="http://www.w3.org/2000/svg" preserveAspectRatio="xMinYMin meet"><path fill="#222" d="M0 0h256v256H0z"/><path d="M114.406 35.277L91.826 99.82l-68.493.19 55.51 41.02-19.948 66.233 56.075-39.7 57.584 42.147-21.08-68.87 54.95-41.02-68.307.19-23.71-64.733" fill="#E08524"/><path d="M117.228 34.336l22.768 10.726L159 97h-18.816l-22.956-62.66" fill="#466770"/><path d="M156.34 142.24l22.486 11.043 54.42-39.518-22.486-11.975-54.42 40.45" fill="#304A51"/><path d="M156.308 142.198l22.518 11.035 21.29 68.84-23.286-11.843-20.522-68.03" fill="#466770"/><path d="M62.095 209.618l52.875-37.822 18.535 13.736-49.96 35-21.45-10.914" fill="#304A51"/></svg>
